X: 10801
T: The HIGHLAND WATCH
Q: "Slow strathspey time."
%R: strathspey
B: W. Hamilton "Universal Tune-Book" Vol. 1 Glasgow 1844 p.80 #1
S: http://imslp.org/wiki/Hamilton's_Universal_Tune-Book_(Various)
Z: 2016 John Chambers <jc:trillian.mit.edu>
M: C
L: 1/8
K: Em
%%slurgraces yes
%%graceslurs yes
% - - - - - - - - - - - - - - - - - - - - - - - - -
B |\
G<ETE>F GETEB | G<ETE>B, {B,}D2D>B |\
G<ETE>F GETE>F | TG>ABG TE3F |\
TG>ABA {c}B>AGA | {GA}B>AGB, {B,}D2DG/F/ |
TE>FTG>A TB>AGe | {e}d>B {B}A>G TE2E :|\
(e/f/) |\
{ef}gee>Tf geeb | g>e{e}d>TB {^c}d2Tde/f/ |\
geef gee>f | Tg>a {ga}b>g e2e>f |
Tg>a{a}b>a {ga}b>aTga | {ga}b>a a/g/f/e/ {e}d2 Tdg/f/ |\
Te>fTg>a {ga}bgab | g>ef>^d {d}e2e>f |\
gee>f geeb | {e}g>e e/d/c/B/ {B}d2 Tde/f/ |
{e}gee>f ge eB/^d/ | e>B=d>F {F}E2E>F !f!|\
TG>ABd {c}B>AGA | {GA}B>AGB, {B,}D2 DG/F/ !p!|\
TE>FTG>A TB>AGe | {e}d>B {B}A>G TE2E |]
% - - - - - - - - - - - - - - - - - - - - - - - - -

%%sep 1 1 500
%%sep 1 1 500

